X: 22
T: Wissahickon Drive
C: Liz Carroll
Z: Transcribed to abc by Mary Lou Knack; tweaked by John Chambers
R: reel
M: C|
K: A
|: "A"EFAB cBAB |    c2ef ecBA | "D"F2dF    eFde |     fedf "E7"edcA |
|  "A"EFAB cBAB |    c2ef eAce | "D"fagf "A"eAcA | "E7"BEGB  "A"A4  :|
|: "A"a2ga baga | "D"fAde fagf | "A"eAce    aece |     aedc "E7"B2fg |
|  "A"a2ga baga | "D"fAde fagf | "A"eAce    aedc | "E7"BEGB  "A"A4  :|
